X:326
T: Chunfeng yichui huakaifang
N: C1825
O: China, Ningxia Xiji
S: I, 159]
N: Hui
R: Shange, Huar]
M: 3/8
L: 1/16
K: Bb
g2fdc2 | f2gbc2 | cdg2f2 | gbc2fz | cdg2f2 | gbg2z2
g2fdc2 | f2gbc2 | c2bgf2 | g2b2gb
c2c2f2 | f2bgf2 | gbg4 | f6 | g2cbg2 | b2g4 | f6

